X: 160263
T: Push and Draw
C: Peter Fitzgerald
Z: B.Black
R: reel
M: 4/4
L: 1/8
K: D
Adfe gefd | ecAF GABG | GEFA dBGA | =cGGF G3 B |
Adfe gefd | ecAF GABG | Acef gbag | fage fd d2 :|
ddad bdad | afgb fedB | =c2 EG c2 EG | =cEGc edce |
ddad bdad | afgb fedB | =cedc AGEG | Aceg fd d2 :|
